( pcb2gcode 1.1.4 )

( This file uses 5 drill bit sizes. )

G94     ( Inches per minute feed rate. )
G21     ( Units == MM.             )
G90     ( Absolute coordinates.        )
S20000  ( RPM spindle speed.           )

G00 Z30.00000 ( Retract )
T1
M5      ( Spindle stop.                )
M6      ( Tool change.                 )
(MSG, CHANGE TOOL BIT: to drill size 0.80000 mm)
M0      ( Temporary machine stop.      )
M3      ( Spindle on clockwise.        )

G0 X54.35600 Y-16.12900
G1 Z-2.50000 F300.00000
G0 Z1.00000
G0 X49.14900 Y-40.51300
G1 Z-2.50000 F300.00000
G0 Z1.00000
G0 X49.14900 Y-43.05300
G1 Z-2.50000 F300.00000
G0 Z1.00000
G0 X49.14900 Y-62.61100
G1 Z-2.50000 F300.00000
G0 Z1.00000
G0 X49.14900 Y-65.15100
G1 Z-2.50000 F300.00000
G0 Z1.00000
G0 X46.73600 Y-16.12900
G1 Z-2.50000 F300.00000
G0 Z1.00000
G0 X30.22600 Y-13.58900
G1 Z-2.50000 F300.00000
G0 Z1.00000
G0 X30.22600 Y-16.12900
G1 Z-2.50000 F300.00000
G0 Z1.00000


G00 Z30.00000 ( Retract )
T2
M5      ( Spindle stop.                )
M6      ( Tool change.                 )
(MSG, CHANGE TOOL BIT: to drill size 0.81300 mm)
M0      ( Temporary machine stop.      )
M3      ( Spindle on clockwise.        )

G0 X36.95700 Y-6.85800
G1 Z-2.50000 F300.00000
G0 Z1.00000
G0 X36.25900 Y-30.79700
G1 Z-2.50000 F300.00000
G0 Z1.00000
G0 X36.25900 Y-38.41700
G1 Z-2.50000 F300.00000
G0 Z1.00000
G0 X36.06800 Y-47.87900
G1 Z-2.50000 F300.00000
G0 Z1.00000
G0 X36.06800 Y-55.49900
G1 Z-2.50000 F300.00000
G0 Z1.00000
G0 X31.87700 Y-6.85800
G1 Z-2.50000 F300.00000
G0 Z1.00000
G0 X24.00300 Y-57.15000
G1 Z-2.50000 F300.00000
G0 Z1.00000
G0 X24.00300 Y-59.69000
G1 Z-2.50000 F300.00000
G0 Z1.00000
G0 X20.82800 Y-32.76600
G1 Z-2.50000 F300.00000
G0 Z1.00000
G0 X20.82800 Y-40.38600
G1 Z-2.50000 F300.00000
G0 Z1.00000


G00 Z30.00000 ( Retract )
T3
M5      ( Spindle stop.                )
M6      ( Tool change.                 )
(MSG, CHANGE TOOL BIT: to drill size 1.00000 mm)
M0      ( Temporary machine stop.      )
M3      ( Spindle on clockwise.        )

G0 X52.83200 Y-50.41900
G1 Z-2.50000 F300.00000
G0 Z1.00000
G0 X52.83200 Y-52.95900
G1 Z-2.50000 F300.00000
G0 Z1.00000
G0 X52.83200 Y-55.49900
G1 Z-2.50000 F300.00000
G0 Z1.00000
G0 X52.83200 Y-58.03900
G1 Z-2.50000 F300.00000
G0 Z1.00000
G0 X52.76900 Y-28.25800
G1 Z-2.50000 F300.00000
G0 Z1.00000
G0 X52.76900 Y-30.79700
G1 Z-2.50000 F300.00000
G0 Z1.00000
G0 X52.76900 Y-33.33700
G1 Z-2.50000 F300.00000
G0 Z1.00000
G0 X52.76900 Y-35.87700
G1 Z-2.50000 F300.00000
G0 Z1.00000
G0 X44.32300 Y-5.96900
G1 Z-2.50000 F300.00000
G0 Z1.00000
G0 X44.32300 Y-16.12900
G1 Z-2.50000 F300.00000
G0 Z1.00000
G0 X44.13300 Y-23.17700
G1 Z-2.50000 F300.00000
G0 Z1.00000
G0 X44.13300 Y-25.71700
G1 Z-2.50000 F300.00000
G0 Z1.00000
G0 X44.13300 Y-28.25800
G1 Z-2.50000 F300.00000
G0 Z1.00000
G0 X44.13300 Y-30.79700
G1 Z-2.50000 F300.00000
G0 Z1.00000
G0 X44.13300 Y-33.33700
G1 Z-2.50000 F300.00000
G0 Z1.00000
G0 X44.13300 Y-35.87700
G1 Z-2.50000 F300.00000
G0 Z1.00000
G0 X44.13300 Y-38.41700
G1 Z-2.50000 F300.00000
G0 Z1.00000
G0 X44.13300 Y-40.95700
G1 Z-2.50000 F300.00000
G0 Z1.00000
G0 X44.13300 Y-45.40200
G1 Z-2.50000 F300.00000
G0 Z1.00000
G0 X44.13300 Y-47.94200
G1 Z-2.50000 F300.00000
G0 Z1.00000
G0 X44.13300 Y-50.48200
G1 Z-2.50000 F300.00000
G0 Z1.00000
G0 X44.13300 Y-53.02300
G1 Z-2.50000 F300.00000
G0 Z1.00000
G0 X44.13300 Y-55.56200
G1 Z-2.50000 F300.00000
G0 Z1.00000
G0 X44.13300 Y-58.10200
G1 Z-2.50000 F300.00000
G0 Z1.00000
G0 X44.13300 Y-60.64200
G1 Z-2.50000 F300.00000
G0 Z1.00000
G0 X44.13300 Y-63.18200
G1 Z-2.50000 F300.00000
G0 Z1.00000
G0 X36.95700 Y-11.04900
G1 Z-2.50000 F300.00000
G0 Z1.00000
G0 X36.95700 Y-13.58900
G1 Z-2.50000 F300.00000
G0 Z1.00000
G0 X36.95700 Y-16.12900
G1 Z-2.50000 F300.00000
G0 Z1.00000
G0 X31.43300 Y-23.17700
G1 Z-2.50000 F300.00000
G0 Z1.00000
G0 X31.43300 Y-25.71700
G1 Z-2.50000 F300.00000
G0 Z1.00000
G0 X31.43300 Y-28.25800
G1 Z-2.50000 F300.00000
G0 Z1.00000
G0 X31.43300 Y-30.79700
G1 Z-2.50000 F300.00000
G0 Z1.00000
G0 X31.43300 Y-33.33700
G1 Z-2.50000 F300.00000
G0 Z1.00000
G0 X31.43300 Y-35.87700
G1 Z-2.50000 F300.00000
G0 Z1.00000
G0 X31.43300 Y-38.41700
G1 Z-2.50000 F300.00000
G0 Z1.00000
G0 X31.43300 Y-40.95700
G1 Z-2.50000 F300.00000
G0 Z1.00000
G0 X31.43300 Y-45.40200
G1 Z-2.50000 F300.00000
G0 Z1.00000
G0 X31.43300 Y-47.94200
G1 Z-2.50000 F300.00000
G0 Z1.00000
G0 X31.43300 Y-50.48200
G1 Z-2.50000 F300.00000
G0 Z1.00000
G0 X31.43300 Y-53.02300
G1 Z-2.50000 F300.00000
G0 Z1.00000
G0 X31.43300 Y-55.56200
G1 Z-2.50000 F300.00000
G0 Z1.00000
G0 X31.43300 Y-58.10200
G1 Z-2.50000 F300.00000
G0 Z1.00000
G0 X31.43300 Y-60.64200
G1 Z-2.50000 F300.00000
G0 Z1.00000
G0 X31.43300 Y-63.18200
G1 Z-2.50000 F300.00000
G0 Z1.00000
G0 X25.40000 Y-22.60600
G1 Z-2.50000 F300.00000
G0 Z1.00000
G0 X25.40000 Y-25.14600
G1 Z-2.50000 F300.00000
G0 Z1.00000
G0 X25.40000 Y-27.68600
G1 Z-2.50000 F300.00000
G0 Z1.00000
G0 X25.40000 Y-30.22600
G1 Z-2.50000 F300.00000
G0 Z1.00000
G0 X25.40000 Y-32.76600
G1 Z-2.50000 F300.00000
G0 Z1.00000
G0 X25.40000 Y-35.30600
G1 Z-2.50000 F300.00000
G0 Z1.00000
G0 X25.40000 Y-37.84600
G1 Z-2.50000 F300.00000
G0 Z1.00000
G0 X25.40000 Y-40.38600
G1 Z-2.50000 F300.00000
G0 Z1.00000
G0 X25.40000 Y-42.92600
G1 Z-2.50000 F300.00000
G0 Z1.00000
G0 X25.40000 Y-45.46600
G1 Z-2.50000 F300.00000
G0 Z1.00000
G0 X25.40000 Y-48.00600
G1 Z-2.50000 F300.00000
G0 Z1.00000
G0 X25.40000 Y-50.54600
G1 Z-2.50000 F300.00000
G0 Z1.00000
G0 X19.05000 Y-57.15000
G1 Z-2.50000 F300.00000
G0 Z1.00000
G0 X16.51000 Y-57.15000
G1 Z-2.50000 F300.00000
G0 Z1.00000
G0 X12.70000 Y-57.15000
G1 Z-2.50000 F300.00000
G0 Z1.00000
G0 X10.16000 Y-22.60600
G1 Z-2.50000 F300.00000
G0 Z1.00000
G0 X10.16000 Y-25.14600
G1 Z-2.50000 F300.00000
G0 Z1.00000
G0 X10.16000 Y-27.68600
G1 Z-2.50000 F300.00000
G0 Z1.00000
G0 X10.16000 Y-30.22600
G1 Z-2.50000 F300.00000
G0 Z1.00000
G0 X10.16000 Y-32.76600
G1 Z-2.50000 F300.00000
G0 Z1.00000
G0 X10.16000 Y-35.30600
G1 Z-2.50000 F300.00000
G0 Z1.00000
G0 X10.16000 Y-37.84600
G1 Z-2.50000 F300.00000
G0 Z1.00000
G0 X10.16000 Y-40.38600
G1 Z-2.50000 F300.00000
G0 Z1.00000
G0 X10.16000 Y-42.92600
G1 Z-2.50000 F300.00000
G0 Z1.00000
G0 X10.16000 Y-45.46600
G1 Z-2.50000 F300.00000
G0 Z1.00000
G0 X10.16000 Y-48.00600
G1 Z-2.50000 F300.00000
G0 Z1.00000
G0 X10.16000 Y-50.54600
G1 Z-2.50000 F300.00000
G0 Z1.00000
G0 X10.16000 Y-57.15000
G1 Z-2.50000 F300.00000
G0 Z1.00000
G0 X4.31800 Y-29.59100
G1 Z-2.50000 F300.00000
G0 Z1.00000
G0 X4.31800 Y-32.13100
G1 Z-2.50000 F300.00000
G0 Z1.00000
G0 X4.31800 Y-34.67100
G1 Z-2.50000 F300.00000
G0 Z1.00000


G00 Z30.00000 ( Retract )
T4
M5      ( Spindle stop.                )
M6      ( Tool change.                 )
(MSG, CHANGE TOOL BIT: to drill size 1.00100 mm)
M0      ( Temporary machine stop.      )
M3      ( Spindle on clockwise.        )

G0 X59.05500 Y-8.29700
G1 Z-2.50000 F300.00000
G0 Z1.00000
G0 X53.35700 Y-6.29700
G1 Z-2.50000 F300.00000
G0 Z1.00000
G0 X53.35700 Y-12.29600
G1 Z-2.50000 F300.00000
G0 Z1.00000


G00 Z30.00000 ( Retract )
T5
M5      ( Spindle stop.                )
M6      ( Tool change.                 )
(MSG, CHANGE TOOL BIT: to drill size 3.00000 mm)
M0      ( Temporary machine stop.      )
M3      ( Spindle on clockwise.        )

G0 X59.69000 Y-17.78000
G1 Z-2.50000 F300.00000
G0 Z1.00000
G0 X59.69000 Y-64.77000
G1 Z-2.50000 F300.00000
G0 Z1.00000
G0 X3.81000 Y-3.81000
G1 Z-2.50000 F300.00000
G0 Z1.00000
G0 X3.81000 Y-64.77000
G1 Z-2.50000 F300.00000
G0 Z1.00000


G00 Z30.00000 ( All done -- retract )

M9 ( Coolant off. )
M2 ( Program end. )

