( pcb2gcode 1.1.4 )

       G21     ( Units == MM.                 )
G90     ( Absolute coordinates.        )
S10000  ( RPM spindle speed.           )
M3      ( Spindle on clockwise.        )

G64 P0.00125 ( set maximum deviation from commanded toolpath )

G04 P0 ( dwell for no time -- G64 should not smooth over this point )
G00 Z1.00000 ( retract )

G00 X-1.63830 Y0.05080 ( rapid move to begin. )
G01 Z-1.80000 F50.00000 ( plunge. )
G04 P0 ( dwell for no time -- G64 should not smooth over this point )
G01 X-1.63830 Y0.05080 F50.00000
G01 X-1.63830 Y-70.17385 F50.00000
G01 X-1.63195 Y-70.17385 F50.00000
G01 X-1.63195 Y-70.18655 F50.00000
G01 X-1.62560 Y-70.18655 F50.00000
G01 X-1.62560 Y-70.19925 F50.00000
G01 X-1.61290 Y-70.19925 F50.00000
G01 X-1.61290 Y-70.20560 F50.00000
G01 X-1.60020 Y-70.20560 F50.00000
G01 X-1.60020 Y-70.21195 F50.00000
G01 X65.09385 Y-70.21195 F50.00000
G01 X65.09385 Y-70.20560 F50.00000
G01 X65.10655 Y-70.20560 F50.00000
G01 X65.10655 Y-70.19925 F50.00000
G01 X65.11925 Y-70.19925 F50.00000
G01 X65.11925 Y-70.18655 F50.00000
G01 X65.12560 Y-70.18655 F50.00000
G01 X65.12560 Y-70.17385 F50.00000
G01 X65.13195 Y-70.17385 F50.00000
G01 X65.13195 Y1.60020 F50.00000
G01 X65.12560 Y1.60020 F50.00000
G01 X65.12560 Y1.61290 F50.00000
G01 X65.11925 Y1.61290 F50.00000
G01 X65.11925 Y1.62560 F50.00000
G01 X65.10655 Y1.62560 F50.00000
G01 X65.10655 Y1.63195 F50.00000
G01 X65.09385 Y1.63195 F50.00000
G01 X65.09385 Y1.63830 F50.00000
G01 X-1.60020 Y1.63830 F50.00000
G01 X-1.60020 Y1.63195 F50.00000
G01 X-1.61290 Y1.63195 F50.00000
G01 X-1.61290 Y1.62560 F50.00000
G01 X-1.62560 Y1.62560 F50.00000
G01 X-1.62560 Y1.61290 F50.00000
G01 X-1.63195 Y1.61290 F50.00000
G01 X-1.63195 Y1.60020 F50.00000
G01 X-1.63830 Y1.60020 F50.00000
G01 X-1.63830 Y0.05080 F50.00000

G04 P0 ( dwell for no time -- G64 should not smooth over this point )
G00 Z30.00000 ( retract )

M5 ( Program end. )

